X:1
T:Title
%%score 1 2
L:1/8
Q:1/4=120
M:9/8
K:A
V:1 treble nm="Strings 1, Soprano"
V:2 bass nm="Strings 1, Bass"
V:1
 z3 z3 [CE][DF][DG] | [CA]3 [CA]3 [Ec][DB][CA] | [CE]3- [CE]2 [CA] [EA][DG][CA] | %3
w: 1.~Glo ri ous~|things~ are~ spo ken~ of~|thee,~ * Thou~ cit y~ of~|
 [EB]3 [EB]3 [EB][Ee][EB] | [Ec]6 [Ec][^D=c][E^c] | [Ee]3 [Ec]3 [FB][FA][DF] | %6
w: God,~ thou~ home~ of~ the~|free;~ Fair~ as~ the~|morn ing,~ clear~ as~ the~|
 [DA]3- [DA]2 [FA] [FB][FA][DF] | [CE]3 [CA]3 [EG][EA][EB] | [EA]6 [CA][B,G][CA] | %9
w: sun,~ * Great~ ar my~ with~|ban ners,~ con quer ing~|one.~ * * *|
 [EB]3- [EB]2 [EB] [EB][Ee][EB] | [Ec]6 [Ec][DB][CA] | [DF]3- [DF]2 [DF] [^DF][DG][DA] | %12
w: |||
 [EG]6 E[^DF][=DG] | [CA]3- [CA]2 [DB] [Ec][Fd][=Ge] | [Fd]6 [DF][EG][FA] | %15
w: |||
 [CE]3 [CA]3 [EG][EA][EB] | [EA]6 z3 |] %17
w: ||
V:2
 z3 z3 [A,,A,][A,,G,][A,,F,] | [A,,E,]3 [A,,E,]3 [A,,A,][A,,A,][A,,A,] | %2
 [A,,A,]3- [A,,A,]2 [A,,E,] [C,E,][B,,E,][A,,A,] | [E,G,]3 [E,G,]3 [E,G,][E,G,][E,G,] | %4
 A,6 A,A,A, | [A,C]3 A,3 [D,A,][D,A,][D,A,] | [D,F,]3- [D,F,]2 [D,A,] [D,D][D,D][D,A,] | %7
 [E,A,]3 [E,A,]3 [E,B,][E,C][E,D] | [A,,C]6 z3 | %9
 [E,G,][E,G,][E,G,] [E,G,][E,G,][E,G,] [E,G,][E,G,][E,G,] | A,A,A, .A,3 z3 | %11
 [D,A,][D,A,][D,A,] [D,A,][D,A,][D,A,] [B,,B,][B,,B,][B,,B,] | [E,B,][E,B,][E,B,] .[E,B,]3 z3 | %13
 [A,,A,][A,,A,][A,,A,] A,A,A, A,A,[C,A,] | [D,A,][D,A,][D,A,] .[D,A,]3 z3 | %15
 [E,A,][E,A,][E,A,] [E,A,]2 [E,A,] [E,B,][E,C][E,D] | [A,,C]6 z3 |] %17

